project/images/official/editable/551.svg

<?xml version="1.0" encoding="UTF-8" standalone="no"?>
<svg
   width="113.12998pt"
   height="36.259609pt"
   viewBox="0 0 113.12998 36.259609"
   version="1.1"
   id="svg3513"
   xmlns="http://www.w3.org/2000/svg"
   xmlns:svg="http://www.w3.org/2000/svg">
  <defs
     id="defs3517" />
  <g
     id="layer2"
     style="display:inline"
     transform="matrix(0.74036996,0,0,1,0.12702584,-0.1225037)" />
  <rect
     style="display:inline;fill:#ffffff;stroke:none;stroke-width:0;stroke-linecap:square;stroke-miterlimit:4;stroke-dasharray:none;stroke-opacity:1"
     id="rect3621"
     width="113.12998"
     height="36.259609"
     x="2.7755576e-17"
     y="0" />
  <rect
     style="display:inline;fill:none;stroke:#000000;stroke-width:0.229313;stroke-linecap:square;stroke-miterlimit:4;stroke-dasharray:none;stroke-opacity:1"
     id="rect3621-4"
     width="111.77069"
     height="35.305103"
     x="0.67964554"
     y="0.47725242" />
  <g
     id="surface1"
     transform="translate(9.0454595,2.9594249)">
    <path
       style="fill:#211e1e;fill-opacity:1;fill-rule:nonzero;stroke:none"
       d="M 0.839844,29.34375 H 94.199219 V 23.722656 H 84.113281 c 0.308594,-0.296875 0.753907,-0.71875 0.984375,-1.074218 0.414063,-0.582032 0.640625,-1.257813 0.683594,-1.980469 0.03906,-0.632813 -0.07813,-1.273438 -0.371094,-1.839844 -0.210937,-0.40625 -0.65625,-0.929687 -0.949218,-1.277344 h 6.636718 V 14.210938 H 82.65625 c 0.152344,-0.136719 0.390625,-0.308594 0.542969,-0.46875 0.273437,-0.265626 0.503906,-0.574219 0.699219,-0.90625 0.195312,-0.332032 0.328124,-0.683594 0.410156,-1.027344 0.05469,-0.21875 0.113281,-0.507813 0.152344,-0.699219 0.15625,0 0.40625,0.01953 0.558593,0 0.214844,-0.03516 0.449219,-0.101563 0.605469,-0.230469 0.136719,-0.121094 0.230469,-0.296875 0.289062,-0.46875 0.0625,-0.171875 0.07813,-0.46875 0.07813,-0.664062 V 7.113281 c 0,-0.296875 -0.05859,-0.582031 -0.152344,-0.855469 -0.101563,-0.253906 -0.25,-0.484374 -0.46875,-0.65625 C 85.144531,5.40625 84.847656,5.289062 84.558594,5.210938 84.308594,5.15625 83.78125,5.132812 83.53125,5.109375 L 76.234375,4.6875 72.492188,1 h -14.59375 l -3.046876,3.6875 -4.460937,0.445312 c -0.210937,0.023438 -0.425781,0.058594 -0.644531,0.09375 -0.207032,0.0625 -0.421875,0.136719 -0.617188,0.25 -0.210937,0.160157 -0.367187,0.375 -0.484375,0.628907 -0.113281,0.25 -0.171875,0.539062 -0.191406,0.8125 L 48.21875,9.734375 c -0.01953,0.191406 -0.01953,0.386719 0,0.574219 0,0.160156 0.03906,0.351562 0.132812,0.488281 0.101563,0.136719 0.25,0.210937 0.410157,0.253906 0.15625,0.05859 0.410156,0.05859 0.582031,0.05859 h 2.132812 c 0.04297,0.15625 0.05469,0.410156 0.101563,0.558594 0.08984,0.425781 0.25,0.859375 0.457031,1.226562 0.238282,0.34375 0.503906,0.65625 0.835938,0.929688 0.136718,0.113281 0.367187,0.273437 0.527344,0.386719 H 42.164062 C 42.359375,14.074219 42.625,13.84375 42.804688,13.6875 c 0.269531,-0.269531 0.484374,-0.5625 0.65625,-0.894531 0.160156,-0.289063 0.296874,-0.617188 0.375,-0.929688 0.05859,-0.230469 0.117187,-0.539062 0.128906,-0.753906 0.101562,0 0.238281,-0.02344 0.332031,-0.03516 0.238281,-0.04297 0.445313,-0.125 0.621094,-0.277344 0.136719,-0.113281 0.234375,-0.269531 0.292969,-0.421875 0.07812,-0.21875 0.09375,-0.511719 0.09375,-0.742188 v -2.48437 c 0,-0.308594 -0.07031,-0.640626 -0.230469,-0.929688 -0.15625,-0.25 -0.367188,-0.464844 -0.617188,-0.605469 -0.277343,-0.148437 -0.621093,-0.25 -0.9375,-0.285156 L 42.511719,5.246094 35.179688,4.6875 31.589844,1 h -14.6875 l -3.066406,3.6875 -3.726563,0.558594 c -0.01953,0 -0.675781,0.101562 -0.71875,0.101562 C 9.160156,5.382812 8.875,5.464844 8.65625,5.601562 8.441406,5.738281 8.289062,5.925781 8.175781,6.140625 8.050781,6.355469 7.996094,6.585938 7.957031,6.816406 l -0.367187,2.875 c -0.019532,0.171875 -0.042969,0.351563 -0.042969,0.523438 0,0.160156 0.023437,0.390625 0.101563,0.527344 0.082031,0.113281 0.195312,0.207031 0.308593,0.265624 0.160157,0.06641 0.3125,0.101563 0.484375,0.101563 h 2.640625 c 0.02344,0.15625 0.05859,0.367187 0.09375,0.523437 0.101563,0.425782 0.253907,0.835938 0.492188,1.203126 0.191406,0.347656 0.445312,0.640624 0.710937,0.90625 0.160156,0.160156 0.390625,0.332031 0.570313,0.46875 H 4.503906 v 3.339843 h 7.234375 c -0.324219,0.367188 -0.8125,0.910157 -1.042969,1.320313 -0.308593,0.539062 -0.484374,1.164062 -0.484374,1.785156 0,0.675781 0.195312,1.339844 0.542968,1.898438 0.230469,0.371093 0.675782,0.851562 0.984375,1.167968 H 0.839844 v 5.621094"
       id="path6467" />
    <path
       style="fill:#ffffff;fill-opacity:1;fill-rule:nonzero;stroke:none"
       d="m 18.507812,11.117188 h 18.097657 c 0,0.148437 0.02344,0.386718 0.05859,0.558593 0.06641,0.414063 0.195313,0.816407 0.390626,1.183594 0.191406,0.351563 0.445312,0.683594 0.777343,0.949219 0.171875,0.136718 0.46875,0.292968 0.660157,0.410156 h -21.94531 c 0.195313,-0.160156 0.46875,-0.367188 0.640625,-0.523438 0.289062,-0.289062 0.542969,-0.585937 0.757812,-0.929687 0.214844,-0.355469 0.367188,-0.742187 0.46875,-1.144531 0.03516,-0.160156 0.07031,-0.367188 0.09375,-0.503906"
       id="path6469" />
    <path
       style="fill:#ffffff;fill-opacity:1;fill-rule:nonzero;stroke:none"
       d="m 58.78125,11.117188 h 18.203125 c 0.02344,0.171874 0.03906,0.464843 0.05859,0.640624 0.05859,0.386719 0.214843,0.753907 0.386719,1.085938 0.175781,0.324219 0.40625,0.65625 0.699218,0.90625 0.171875,0.160156 0.484375,0.351562 0.675782,0.46875 H 57.019531 c 0.15625,-0.117188 0.386719,-0.289062 0.539063,-0.425781 0.296875,-0.273438 0.527344,-0.5625 0.742187,-0.890625 0.230469,-0.410156 0.367188,-0.859375 0.445313,-1.304688 0.02344,-0.136718 0.03516,-0.34375 0.03516,-0.480468"
       id="path6471" />
    <path
       style="fill:#ffffff;fill-opacity:1;fill-rule:nonzero;stroke:none"
       d="m 16.261719,17.550781 h 3.914062 c -0.25,0.3125 -0.597656,0.78125 -0.789062,1.109375 -0.355469,0.597656 -0.605469,1.261719 -0.621094,1.960938 -0.02344,0.652344 0.152344,1.316406 0.480469,1.898437 0.21875,0.390625 0.644531,0.871094 0.929687,1.203125 H 16.261719 C 16.546875,23.390625 16.957031,22.886719 17.175781,22.5 17.5,21.917969 17.691406,21.273438 17.679688,20.597656 c 0,-0.640625 -0.214844,-1.296875 -0.546876,-1.863281 -0.210937,-0.367187 -0.597656,-0.851563 -0.871093,-1.183594"
       id="path6473" />
    <path
       style="fill:#ffffff;fill-opacity:1;fill-rule:nonzero;stroke:none"
       d="M 76.113281,17.550781 H 79.9375 c -0.273438,0.367188 -0.675781,0.917969 -0.871094,1.320313 -0.273437,0.558594 -0.433594,1.1875 -0.410156,1.785156 0.03516,0.757812 0.289062,1.453125 0.734375,2.058594 0.238281,0.332031 0.660156,0.734375 0.949219,1.007812 h -4.226563 c 0.308594,-0.308594 0.757813,-0.8125 0.988281,-1.179687 0.328126,-0.570313 0.488282,-1.222657 0.488282,-1.886719 0,-0.597656 -0.101563,-1.226562 -0.386719,-1.765625 C 76.96875,18.46875 76.46875,17.90625 76.113281,17.550781"
       id="path6475" />
    <path
       style="fill:#ffffff;fill-opacity:1;fill-rule:nonzero;stroke:none"
       d="m 24.621094,17.550781 h 46.871094 c -0.269532,0.3125 -0.65625,0.757813 -0.851563,1.109375 -0.351563,0.597656 -0.546875,1.261719 -0.558594,1.960938 -0.02344,0.652344 0.113281,1.316406 0.445313,1.898437 0.207031,0.390625 0.652344,0.894531 0.964844,1.203125 H 24.621094 c 0.273437,-0.332031 0.695312,-0.835937 0.914062,-1.222656 0.324219,-0.582031 0.515625,-1.226562 0.503906,-1.902344 0,-0.65625 -0.179687,-1.296875 -0.503906,-1.863281 -0.238281,-0.367187 -0.640625,-0.851563 -0.914062,-1.183594"
       id="path6477" />
  </g>
</svg>

<?xml version="1.0" encoding="UTF-8"?>
<svg xmlns="http://www.w3.org/2000/svg" xmlns:xlink="http://www.w3.org/1999/xlink" width="95pt" height="30pt" viewBox="0 0 95 30" version="1.1">
<g id="surface1">
<path style=" stroke:none;fill-rule:nonzero;fill:rgb(13.729858%,12.159729%,12.548828%);fill-opacity:1;" d="M 0.839844 29.34375 L 94.199219 29.34375 L 94.199219 23.722656 L 84.113281 23.722656 C 84.421875 23.425781 84.867188 23.003906 85.097656 22.648438 C 85.511719 22.066406 85.738281 21.390625 85.78125 20.667969 C 85.820312 20.035156 85.703125 19.394531 85.410156 18.828125 C 85.199219 18.421875 84.753906 17.898438 84.460938 17.550781 L 91.097656 17.550781 L 91.097656 14.210938 L 82.65625 14.210938 C 82.808594 14.074219 83.046875 13.902344 83.199219 13.742188 C 83.472656 13.476562 83.703125 13.167969 83.898438 12.835938 C 84.09375 12.503906 84.226562 12.152344 84.308594 11.808594 C 84.363281 11.589844 84.421875 11.300781 84.460938 11.109375 C 84.617188 11.109375 84.867188 11.128906 85.019531 11.109375 C 85.234375 11.074219 85.46875 11.007812 85.625 10.878906 C 85.761719 10.757812 85.855469 10.582031 85.914062 10.410156 C 85.976562 10.238281 85.992188 9.941406 85.992188 9.746094 L 85.992188 7.113281 C 85.992188 6.816406 85.933594 6.53125 85.839844 6.257812 C 85.738281 6.003906 85.589844 5.773438 85.371094 5.601562 C 85.144531 5.40625 84.847656 5.289062 84.558594 5.210938 C 84.308594 5.15625 83.78125 5.132812 83.53125 5.109375 L 76.234375 4.6875 L 72.492188 1 L 57.898438 1 L 54.851562 4.6875 L 50.390625 5.132812 C 50.179688 5.15625 49.964844 5.191406 49.746094 5.226562 C 49.539062 5.289062 49.324219 5.363281 49.128906 5.476562 C 48.917969 5.636719 48.761719 5.851562 48.644531 6.105469 C 48.53125 6.355469 48.472656 6.644531 48.453125 6.917969 L 48.21875 9.734375 C 48.199219 9.925781 48.199219 10.121094 48.21875 10.308594 C 48.21875 10.46875 48.257812 10.660156 48.351562 10.796875 C 48.453125 10.933594 48.601562 11.007812 48.761719 11.050781 C 48.917969 11.109375 49.171875 11.109375 49.34375 11.109375 L 51.476562 11.109375 C 51.519531 11.265625 51.53125 11.519531 51.578125 11.667969 C 51.667969 12.09375 51.828125 12.527344 52.035156 12.894531 C 52.273438 13.238281 52.539062 13.550781 52.871094 13.824219 C 53.007812 13.9375 53.238281 14.097656 53.398438 14.210938 L 42.164062 14.210938 C 42.359375 14.074219 42.625 13.84375 42.804688 13.6875 C 43.074219 13.417969 43.289062 13.125 43.460938 12.792969 C 43.621094 12.503906 43.757812 12.175781 43.835938 11.863281 C 43.894531 11.632812 43.953125 11.324219 43.964844 11.109375 C 44.066406 11.109375 44.203125 11.085938 44.296875 11.074219 C 44.535156 11.03125 44.742188 10.949219 44.917969 10.796875 C 45.054688 10.683594 45.152344 10.527344 45.210938 10.375 C 45.289062 10.15625 45.304688 9.863281 45.304688 9.632812 L 45.304688 7.148438 C 45.304688 6.839844 45.234375 6.507812 45.074219 6.21875 C 44.917969 5.96875 44.707031 5.753906 44.457031 5.613281 C 44.179688 5.464844 43.835938 5.363281 43.519531 5.328125 L 42.511719 5.246094 L 35.179688 4.6875 L 31.589844 1 L 16.902344 1 L 13.835938 4.6875 L 10.109375 5.246094 C 10.089844 5.246094 9.433594 5.347656 9.390625 5.347656 C 9.160156 5.382812 8.875 5.464844 8.65625 5.601562 C 8.441406 5.738281 8.289062 5.925781 8.175781 6.140625 C 8.050781 6.355469 7.996094 6.585938 7.957031 6.816406 L 7.589844 9.691406 C 7.570312 9.863281 7.546875 10.042969 7.546875 10.214844 C 7.546875 10.375 7.570312 10.605469 7.648438 10.742188 C 7.730469 10.855469 7.84375 10.949219 7.957031 11.007812 C 8.117188 11.074219 8.269531 11.109375 8.441406 11.109375 L 11.082031 11.109375 C 11.105469 11.265625 11.140625 11.476562 11.175781 11.632812 C 11.277344 12.058594 11.429688 12.46875 11.667969 12.835938 C 11.859375 13.183594 12.113281 13.476562 12.378906 13.742188 C 12.539062 13.902344 12.769531 14.074219 12.949219 14.210938 L 4.503906 14.210938 L 4.503906 17.550781 L 11.738281 17.550781 C 11.414062 17.917969 10.925781 18.460938 10.695312 18.871094 C 10.386719 19.410156 10.210938 20.035156 10.210938 20.65625 C 10.210938 21.332031 10.40625 21.996094 10.753906 22.554688 C 10.984375 22.925781 11.429688 23.40625 11.738281 23.722656 L 0.839844 23.722656 L 0.839844 29.34375 "/>
<path style=" stroke:none;fill-rule:nonzero;fill:rgb(100%,100%,100%);fill-opacity:1;" d="M 18.507812 11.117188 L 36.605469 11.117188 C 36.605469 11.265625 36.628906 11.503906 36.664062 11.675781 C 36.730469 12.089844 36.859375 12.492188 37.054688 12.859375 C 37.246094 13.210938 37.5 13.542969 37.832031 13.808594 C 38.003906 13.945312 38.300781 14.101562 38.492188 14.21875 L 16.546875 14.21875 C 16.742188 14.058594 17.015625 13.851562 17.1875 13.695312 C 17.476562 13.40625 17.730469 13.109375 17.945312 12.765625 C 18.160156 12.410156 18.3125 12.023438 18.414062 11.621094 C 18.449219 11.460938 18.484375 11.253906 18.507812 11.117188 "/>
<path style=" stroke:none;fill-rule:nonzero;fill:rgb(100%,100%,100%);fill-opacity:1;" d="M 58.78125 11.117188 L 76.984375 11.117188 C 77.007812 11.289062 77.023438 11.582031 77.042969 11.757812 C 77.101562 12.144531 77.257812 12.511719 77.429688 12.84375 C 77.605469 13.167969 77.835938 13.5 78.128906 13.75 C 78.300781 13.910156 78.613281 14.101562 78.804688 14.21875 L 57.019531 14.21875 C 57.175781 14.101562 57.40625 13.929688 57.558594 13.792969 C 57.855469 13.519531 58.085938 13.230469 58.300781 12.902344 C 58.53125 12.492188 58.667969 12.042969 58.746094 11.597656 C 58.769531 11.460938 58.78125 11.253906 58.78125 11.117188 "/>
<path style=" stroke:none;fill-rule:nonzero;fill:rgb(100%,100%,100%);fill-opacity:1;" d="M 16.261719 17.550781 L 20.175781 17.550781 C 19.925781 17.863281 19.578125 18.332031 19.386719 18.660156 C 19.03125 19.257812 18.78125 19.921875 18.765625 20.621094 C 18.742188 21.273438 18.917969 21.9375 19.246094 22.519531 C 19.464844 22.910156 19.890625 23.390625 20.175781 23.722656 L 16.261719 23.722656 C 16.546875 23.390625 16.957031 22.886719 17.175781 22.5 C 17.5 21.917969 17.691406 21.273438 17.679688 20.597656 C 17.679688 19.957031 17.464844 19.300781 17.132812 18.734375 C 16.921875 18.367188 16.535156 17.882812 16.261719 17.550781 "/>
<path style=" stroke:none;fill-rule:nonzero;fill:rgb(100%,100%,100%);fill-opacity:1;" d="M 76.113281 17.550781 L 79.9375 17.550781 C 79.664062 17.917969 79.261719 18.46875 79.066406 18.871094 C 78.792969 19.429688 78.632812 20.058594 78.65625 20.65625 C 78.691406 21.414062 78.945312 22.109375 79.390625 22.714844 C 79.628906 23.046875 80.050781 23.449219 80.339844 23.722656 L 76.113281 23.722656 C 76.421875 23.414062 76.871094 22.910156 77.101562 22.542969 C 77.429688 21.972656 77.589844 21.320312 77.589844 20.65625 C 77.589844 20.058594 77.488281 19.429688 77.203125 18.890625 C 76.96875 18.46875 76.46875 17.90625 76.113281 17.550781 "/>
<path style=" stroke:none;fill-rule:nonzero;fill:rgb(100%,100%,100%);fill-opacity:1;" d="M 24.621094 17.550781 L 71.492188 17.550781 C 71.222656 17.863281 70.835938 18.308594 70.640625 18.660156 C 70.289062 19.257812 70.09375 19.921875 70.082031 20.621094 C 70.058594 21.273438 70.195312 21.9375 70.527344 22.519531 C 70.734375 22.910156 71.179688 23.414062 71.492188 23.722656 L 24.621094 23.722656 C 24.894531 23.390625 25.316406 22.886719 25.535156 22.5 C 25.859375 21.917969 26.050781 21.273438 26.039062 20.597656 C 26.039062 19.941406 25.859375 19.300781 25.535156 18.734375 C 25.296875 18.367188 24.894531 17.882812 24.621094 17.550781 "/>
</g>
</svg>
